images/wallet.svg

<svg width="64" height="64" viewBox="0 0 64 64" fill="none" xmlns="http://www.w3.org/2000/svg">
<path fill-rule="evenodd" clip-rule="evenodd" d="M62.6668 53.3333C62.6668 57.016 59.6828 60 56.0002 60H8.00016C4.3175 60 1.3335 57.016 1.3335 53.3333V14.6667C1.3335 11.7213 3.7215 9.33333 6.66683 9.33333H33.5615L44.3602 5.42133C45.0442 5.172 45.8015 5.52533 46.0508 6.20667L47.1882 9.33333H52.0002C54.9455 9.33333 57.3335 11.7213 57.3335 14.6667V17.3333C60.2788 17.3333 62.6668 19.7213 62.6668 22.6667V53.3333ZM6.66683 12C5.19483 12 4.00016 13.1947 4.00016 14.6667C4.00016 16.1387 5.19483 17.3333 6.66683 17.3333H11.2602H11.5122C11.5295 17.3267 11.5402 17.312 11.5575 17.3053L26.2002 12H6.66683ZM45.4375 12.2413L44.0215 8.34267H44.0202L41.2855 9.33333H41.2895L33.9375 12H33.9242L19.2055 17.3333H47.2882L45.4375 12.2413ZM54.6668 14.6667C54.6668 13.1947 53.4722 12 52.0002 12H48.1562L50.0948 17.3333H54.6668V14.6667ZM57.3335 20H6.66683C5.69083 20 4.78683 19.7187 4.00016 19.26V53.3333C4.00016 55.5427 5.79216 57.3333 8.00016 57.3333H56.0002C58.2095 57.3333 60.0002 55.5427 60.0002 53.3333V44H54.6668C51.7215 44 49.3335 41.612 49.3335 38.6667C49.3335 35.7213 51.7215 33.3333 54.6668 33.3333H60.0002V22.6667C60.0002 21.1947 58.8055 20 57.3335 20ZM60.0002 41.3333V36H54.6668C53.1948 36 52.0002 37.1947 52.0002 38.6667C52.0002 40.1387 53.1948 41.3333 54.6668 41.3333H60.0002ZM54.6668 37.3333H57.3335V40H54.6668V37.3333Z" fill="#F7931E"/>
</svg>

<svg width="64" height="64" fill="none" xmlns="http://www.w3.org/2000/svg"><path fill-rule="evenodd" clip-rule="evenodd" d="M62.667 53.333A6.666 6.666 0 0 1 56 60H8a6.666 6.666 0 0 1-6.667-6.667V14.667a5.334 5.334 0 0 1 5.334-5.334h26.895L44.36 5.421a1.32 1.32 0 0 1 1.69.786l1.138 3.126H52a5.334 5.334 0 0 1 5.334 5.334v2.666a5.334 5.334 0 0 1 5.333 5.334v30.666ZM6.667 12a2.668 2.668 0 0 0 0 5.333h4.845c.018-.006.028-.021.045-.028L26.2 12H6.667Zm38.77.241-1.415-3.898h-.002l-2.735.99h.005L33.938 12h-.014l-14.718 5.333h28.082l-1.85-5.092Zm9.23 2.426A2.668 2.668 0 0 0 52 12h-3.844l1.939 5.333h4.572v-2.666ZM57.333 20H6.668c-.976 0-1.88-.281-2.667-.74v34.073a4 4 0 0 0 4 4h48a4 4 0 0 0 4-4V44h-5.333a5.334 5.334 0 0 1 0-10.667H60V22.667A2.668 2.668 0 0 0 57.334 20ZM60 41.333V36h-5.333a2.668 2.668 0 0 0 0 5.333H60Zm-5.333-4h2.666V40h-2.666v-2.667Z" fill="#F7931E"/></svg>
